X: 437
T: Qianhenxian guazhu zoubu kai
L: 1/8
M: 2/4
K: F
c> f c c [I:setbarnb 1]| 
AC2F | 
c> f c A | 
G4 | 
c> f c c | 
AC2F | 
G> c A D | 
C4 |]

@@@ Tune index: 9311
